X: 98
T: Se spiegar potessi oh! Dio
C: Maria Szymanowska
%%abc-version 2.0
%%abcx-abcm2ps-target-version 5.9.1 (29 Sep 2008)
%%abc-creator hum2abc beta
%%abcx-conversion-date 2021/10/04 07:38:42
%%abc-edited-by Kamil Watkowski
%%abcx-initial-encoding-date 2021-08-09
%%humdrum-veritas 4170794897
%%humdrum-veritas-data 3196196916
%%linebreak <none>
%%barnumbers 0
L: 1/8
M: 2/4
N: Derived from pl-kozmzk--mzk-m-33--006_szymanowska-maria--se-spiegar-potessi-oh-dio.krn
V: 1 clef=treble
V: 2 clef=treble
V: 3 clef=bass
K: F
[V:1] z4 | 
[V:2] z [FA,][EG,][DF,] | 
[V:3] [D,4D,,4] | 
[V:1] z4 | 
[V:2] [^CE,] [GB,][FA,][EG,] | 
[V:3] A,,, A,,=B,,^C, | 
[V:1] z4 | 
[V:2] [DF,] [fA][eG][dF] | 
[V:3] D,2z2 | 
[V:1] z4 | 
[V:2] [^cE] [acA][adA][aeA] | 
[V:3] A,, A,=B,^C | 
[V:1] z4 | 
[V:2] [afA] z [eBG] z | 
[V:3] D z G, z | 
[V:1] z4 | 
[V:2] [AF] z [^cGE] z | 
[V:3] A, z A,, z | 
[V:1] z4 | 
[V:2] [d4F4D4]- | 
[V:3] D,4- | 
[V:1] z2A F | 
[V:2] [d2F2D2]z2 | 
[V:3] !fermata!D,2z2 | 
[V:1] {/E}D3F | 
[V:2] z [DA,F,][DA,F,][DA,F,] | 
[V:3] [D,4D,,4] | 
[V:1] Af e d | 
[V:2] z [DA,F,][DA,F,][DA,F,] | 
[V:3] [D,4D,,4] | 
[V:1] !accent!d2^c z | 
[V:2] z [^CB,G,][CB,G,][CB,G,] | 
[V:3] [E,4E,,4] | 
[V:1] z2^c d | 
[V:2] z [^CB,G,][CB,G,][CB,G,] | 
[V:3] [E,2E,,2]z2 | 
[V:1] !accent!e3G | 
[V:2] z [EA,G,][EA,G,][EA,G,] | 
[V:3] ^C,4 | 
[V:1] GB A G | 
[V:2] z [E^CG,][ECG,][ECG,] | 
[V:3] A,,4 | 
[V:1] G Fz2 | 
[V:2] z [DA,F,][DA,F,][DA,F,] | 
[V:3] [D,2D,,2]z2 | 
[V:1] z2d c | 
[V:2] z [CB,G,][CB,G,][CB,G,] | 
[V:3] [E,4E,,4] | 
[V:1] c2A z | 
[V:2] z [CA,] z [CA,] | 
[V:3] F,2C,2 | 
[V:1] z c !accent!d c | 
[V:2] z [CB,G,] z [CB,G,] | 
[V:3] E,2C,2 | 
[V:1] c2A z | 
[V:2] z [CA,][CA,][CA,] | 
[V:3] F,2z2 | 
[V:1] f2e d | 
[V:2] z [FD][EC][DB,] | 
[V:3] B,,4 | 
[V:1] d cz2 | 
[V:2] z [CA,][CA,][CA,] | 
[V:3] C,4 | 
[V:1] c3B | 
[V:2] z [B,G,] z [B,G,] | 
[V:3] C,2^C,2 | 
[V:1] {/B}A2z2 | 
[V:2] z [A,F,] z [A,F,] | 
[V:3] D,2=C,2 | 
[V:1] z fe d | 
[V:2] z [DG,F,] z [D_A,F,] | 
[V:3] =B,,2=B,,,2 | 
[V:1] {/d}c2z A | 
[V:2] z [C=A,F,][CA,F,][CA,F,] | 
[V:3] C,,2z2 | 
[V:1] {/c}B2z G | 
[V:2] z [EB,G,][EB,G,][EB,G,] | 
[V:3] C,2z2 | 
[V:1] F4 | 
[V:2] [F2A,2F,2][A2C2A,2] | 
[V:3] F,,2F,2 | 
[V:1] z2A F | 
[V:2] [F2A,2F,2]z2 | 
[V:3] F,,2z2 | 
[V:1] ED AF | 
[V:2] z [DA,F,][DA,F,][DA,F,] | 
[V:3] [D,4D,,4] | 
[V:1] dA !accent!f d | 
[V:2] z [DA,F,][DA,F,][DA,F,] | 
[V:3] [D,4D,,4] | 
[V:1] d2^c z | 
[V:2] z [B,G,E,][B,G,E,][B,G,E,] | 
[V:3] [D,4D,,4] | 
[V:1] z2^c d | 
[V:2] z [^CB,G,][CB,G,][CB,G,] | 
[V:3] [D,2D,,2]z2 | 
[V:1] eG BE | 
[V:2] z [EA,G,] z [E^CG,] | 
[V:3] ^C,2A,,2 | 
[V:1] G^C !accent!B A | 
[V:2] z [EA,G,] z [E^CG,] | 
[V:3] ^C,2A,,2 | 
[V:1] G Fz2 | 
[V:2] z [DA,F,][DA,F,][DA,F,] | 
[V:3] [D,2D,,2]z2 | 
[V:1] z2d c | 
[V:2] z [CB,G,][CB,G,][CB,G,] | 
[V:3] [E,4E,,4] | 
[V:1] c2A z | 
[V:2] z [CA,] z [CA,] | 
[V:3] F,2C,2 | 
[V:1] z c {/e} d c | 
[V:2] z [CB,G,] z [CB,G,] | 
[V:3] E,2C,2 | 
[V:1] c2A z | 
[V:2] z [CA,][CA,][CA,] | 
[V:3] F,2z2 | 
[V:1] f2e d | 
[V:2] z [FD][EC][DB,] | 
[V:3] B,,4 | 
[V:1] d cz2 | 
[V:2] z [CA,][CA,][CA,] | 
[V:3] C,4 | 
[V:1] c/B/A/B/ c B | 
[V:2] z [B,G,E,][B,G,E,][B,G,E,] | 
[V:3] ^C,4 | 
[V:1] {/B}A2z2 | 
[V:2] z [A,F,] z [A,F,] | 
[V:3] D,2=C,2 | 
[V:1] (3z fe(3gf d | 
[V:2] z [DG,F,] z [D_A,F,] | 
[V:3] =B,,2=B,,,2 | 
[V:1] {/d}c2z A | 
[V:2] z [C=A,F,][CA,F,][CA,F,] | 
[V:3] C,,2z2 | 
[V:1] {/c}B2z G | 
[V:2] z [EB,G,][EB,G,][EB,G,] | 
[V:3] C,2z2 | 
[V:1] F4 | 
[V:2] [F2A,2F,2]!arpeggio![A2C2A,2] | 
[V:3] F,,2!arpeggio!F,2 | 
[V:1] z2A G | 
[V:2] !arpeggio![F2A,2F,2]z2 | 
[V:3] F,,2z2 | 
[V:1] ^F4 | 
[V:2] [^F3E3][FE] | 
[V:3] C3C | 
[V:1] G2A3/ A/ | 
[V:2] [G2D2][A2D2] | 
[V:3] B,2^F,2 | 
[V:1] c Bz2 | 
[V:2] [B4D4] | 
[V:3] G,4 | 
[V:1] z2A A | 
[V:2] [A4F4D4] | 
[V:3] [A,4A,,4] | 
[V:1] {/A}^G2G2 | 
[V:2] [^G4F4D4] | 
[V:3] [B,4B,,4] | 
[V:1] d2e f | 
[V:2] [^G4E4D4] | 
[V:3] [B,4B,,4] | 
[V:1] e^cA{/=c}B | 
[V:2] [A4E4^C4]- | 
[V:3] [A,4A,,4]- | 
[V:1] AG F E | 
[V:2] [A2E2C2]z2 | 
[V:3] [A,2A,,2]z2 | 
[V:1] D2F2 | 
[V:2] z D z F | 
[V:3] D,2F,2 | 
[V:1] B2^G2 | 
[V:2] z B z ^G | 
[V:3] B,2^G,2 | 
[V:1] A2B2 | 
[V:2] z A z B | 
[V:3] A,2G2 | 
[V:1] A2G2 | 
[V:2] z A z G | 
[V:3] F2E2 | 
[V:1] F2E D | 
[V:2] z F z [ED] | 
[V:3] D2^G,2 | 
[V:1] ^CB A G | 
[V:2] z [E^C] z [GEA,] | 
[V:3] A,2^C,2 | 
[V:1] {/G}F2E2 | 
[V:2] [F2D2A,2][E2^C2A,2]- | 
[V:3] D,2A,,2- | 
[V:1] z2!accent!B A | 
[V:2] [ECA,] z[B2G2E2] | 
[V:3] A,, z^C2 | 
[V:1] A2!accent!BA | 
[V:2] [AF] z[B2G2E2] | 
[V:3] D z^C,2 | 
[V:1] A2{/c} !accent!BA | 
[V:2] [AF] z[B2G2E2] | 
[V:3] D, z^C2 | 
[V:1] A2!fermata!F z | 
[V:2] [A3F3]z | 
[V:3] D3z | 
[V:1] z !accent!gf e | 
[V:2] z [gB][fA][eG] | 
[V:3] [A,4A,,4] | 
[V:1] f>ed2 | 
[V:2] [fA]>[eG][d2F2]- | 
[V:3] D,>E,F,3/G,/ | 
[V:1] z d e ^c | 
[V:2] [dF][dF][eG][^cE] | 
[V:3] A,^G,A,A,, | 
[V:1] d2A z | 
[V:2] [dF][A/F/][B/G/] [AF][AF] | 
[V:3] D,2z2 | 
[V:1] z !accent!gf e | 
[V:2] z [gB][fA][eG] | 
[V:3] A,, .A,.=B,.^C | 
[V:1] f>ed2 | 
[V:2] f>ed2 & A2G^G | 
[V:3] .D.=C.=B,._B, | 
[V:1] z !accent!f e !accent!f | 
[V:2] [dAF][fA][eG][fA] | 
[V:3] A,2A,,2 | 
[V:1] d4- | 
[V:2] [dF]F/A/ dD/F/ | 
[V:3] [D,A,,F,,D,,][D,A,,F,,D,,][D,A,,F,,D,,][D,A,,F,,D,,] | 
[V:1] d4- | 
[V:2] AA,/D/ FF,/A,/ | 
[V:3] [D,A,,F,,D,,][D,A,,F,,D,,][D,A,,F,,D,,][D,A,,F,,D,,] | 
[V:1] !fermata!d4 |]  
[V:2] [D4F,4D,4] |]  
[V:3] [A,,4F,,4D,,4] |]  


